X:15
T:For My Mother Dear
R:waltz
C:Jerry Holland
O:Cape Breton Island
F:http://cranfordpub.com/tunes/abcs/hollandarchive.txt
F:http://www.jerryholland.com/tunes/abc.htm
S:http://www.cranfordpub.com
D:Fiddler's Choice
B:Jerry Holland the 2nd Collection, 2000
Z:psc, (re-formatted,updated 9/19/04)
N:http://www.jerryholland.com
H:copyrights Fiddlesticksmusic, SOCAN
L:1/8
Q:288
M:3/4
%%slurgraces
K:D
(A,B,) |: {B,C}D4 (TED) | {DE}F4 (TED) | {D}B,3 A, (G,B,) | A,4 DE |\
{A}F4 (TED) | {e}d4 AF | E6 | TE3A, (A,B,) |
{B,C}D4 (TED) | {DE}F4 (TED) | {D}B,3 A, (G,B,) | A,4 DE |\
F2A3B | {A}F3 F (TED) | {B,C}D6 |1 D3 A, (A,B,) :|2 D4 ||
|: {f}"1"a2 | "1"a3"1"a ("2"ba) |\
"3"f4"2"Te2 | ("1slide"d"1"B2)B (TBA) | {FG}A6 |\
dG3("1 slide"B"1"_B) | Ad3(f/g/f/e/) | {c/d/}e6 | Te4 {f}"1"a2 |
"1"a3"1"a ("2"ba) | "3"f4"2"Te2 | ("1"d"1"B2)B (TBA) | {FG}A6 |\
dG3("1 slide"B"1"_B) | Ad3(f/g/f/e/) | {c/d/}e4-e d/e/ | d4 :|
